web/static/img/lp/react-logo-gray.svg

<svg fill="none" height="50" viewBox="0 0 57 50" width="57" xmlns="http://www.w3.org/2000/svg"><g fill="#2f2f2f" fill-opacity=".5"><path d="m56.3048 25.0057c0-3.7194-4.6579-7.2442-11.7991-9.4301 1.648-7.27851.9156-13.06931-2.3117-14.923277-.7439-.434882-1.6137-.6408787-2.5635-.6408787v2.5520757c.5264 0 .9498.10299 1.3046.29755 1.5564.89265 2.2316 4.2916 1.7052 8.66333-.1259 1.0757-.3319 2.2087-.5837 3.3646-2.243-.5493-4.6921-.9728-7.2671-1.2474-1.5449-2.1172-3.1471-4.03986-4.7608-5.72217 3.7308-3.46761 7.2328-5.36736 9.6132-5.36736v-2.55207c-3.1472 0-7.2671 2.24308-11.4328 6.13413-4.1657-3.86817-8.2857-6.0883529-11.4328-6.0883529v2.5520729c2.3689 0 5.8823 1.8883 9.6131 5.33303-1.6022 1.6823-3.2044 3.59352-4.7264 5.71072-2.5864.2746-5.0355.6981-7.2786 1.2588-.2632-1.1444-.4578-2.2545-.5951-3.3188-.5379-4.37171.1259-7.77066 1.6709-8.67476.3433-.20599.7896-.29755 1.3161-.29755v-2.5520687c-.9614 0-1.8311.2059967-2.5864.6408787-3.2159 1.85397-3.9369 7.63333-2.2775 14.889-7.11829 2.1973-11.75322 5.7107-11.75322 9.4186 0 3.7194 4.65782 7.2442 11.79902 9.4301-1.648 7.2786-.9155 13.0693 2.3118 14.9233.7438.4349 1.6136.6409 2.5749.6409 3.1472 0 7.2671-2.2431 11.4328-6.1341 4.1658 3.8681 8.2857 6.0883 11.4329 6.0883.9613 0 1.831-.206 2.5864-.6409 3.2158-1.8539 3.9368-7.6333 2.2774-14.8889 7.0954-2.1859 11.7304-5.7107 11.7304-9.4187zm-14.9005-7.6333c-.4234 1.4763-.9499 2.9984-1.545 4.5205-.4692-.9156-.9613-1.8311-1.4992-2.7466-.5264-.9156-1.0872-1.8082-1.6479-2.678 1.6251.2403 3.1929.5379 4.6921.9041zm-5.2415 12.1881c-.8926 1.545-1.8081 3.0099-2.758 4.3718-1.7052.1487-3.4333.2288-5.1728.2288-1.7281 0-3.4562-.0801-5.15-.2174-.9498-1.3619-1.8768-2.8153-2.7695-4.3488-.8697-1.4992-1.6594-3.0213-2.3804-4.5548.7096-1.5336 1.5107-3.0671 2.369-4.5663.8926-1.545 1.8082-3.0098 2.7581-4.3717 1.7052-.1488 3.4332-.2289 5.1728-.2289 1.7281 0 3.4561.0801 5.1499.2174.9499 1.3619 1.8768 2.8153 2.7695 4.3489.8698 1.4992 1.6594 3.0212 2.3804 4.5548-.721 1.5335-1.5106 3.067-2.369 4.5662zm3.6965-1.4877c.618 1.5335 1.1445 3.0671 1.5794 4.5548-1.4992.3662-3.0786.6752-4.7151.9155.5608-.8812 1.1216-1.7853 1.648-2.7122.5264-.9156 1.0185-1.8426 1.4877-2.7581zm-11.6044 12.211c-1.0644-1.0986-2.1287-2.3232-3.1815-3.6621 1.0299.0457 2.0828.0801 3.1471.0801 1.0758 0 2.1401-.0229 3.1815-.0801-1.03 1.3389-2.0943 2.5635-3.1471 3.6621zm-8.5146-6.7407c-1.6251-.2403-3.1929-.5378-4.6921-.9041.4234-1.4763.9498-2.9983 1.5449-4.5204.4693.9155.9614 1.831 1.4992 2.7466.5379.9155 1.0873 1.8082 1.648 2.6779zm8.4573-23.81547c1.0644 1.09867 2.1287 2.32317 3.1815 3.66217-1.0299-.0458-2.0828-.0801-3.1471-.0801-1.0758 0-2.1401.0229-3.1815.0801 1.0299-1.339 2.0943-2.5635 3.1471-3.66217zm-8.4687 6.74067c-.5608.8812-1.1216 1.7853-1.648 2.7123-.5264.9155-1.0185 1.8311-1.4878 2.7466-.6179-1.5335-1.1444-3.067-1.5793-4.5548 1.4992-.3548 3.0785-.6638 4.7151-.9041zm-10.35709 14.3282c-4.05127-1.7281-6.672-3.994-6.672-5.7908 0-1.7967 2.62073-4.0741 6.672-5.7908.98419-.4234 2.05999-.8011 3.17009-1.1558.6523 2.243 1.5106 4.5777 2.5749 6.9695-1.0528 2.3804-1.8997 4.7036-2.5406 6.9352-1.133-.3547-2.2087-.7438-3.20439-1.1673zm6.15699 16.3539c-1.5564-.8927-2.2316-4.2916-1.7052-8.6633.1259-1.0758.3319-2.2088.5837-3.3646 2.2431.5493 4.6921.9727 7.2671 1.2474 1.545 2.1172 3.1472 4.0398 4.7608 5.7221-3.7308 3.4676-7.2328 5.3674-9.6132 5.3674-.515-.0115-.9498-.1145-1.2932-.309zm27.1458-8.7206c.5379 4.3718-.1259 7.7707-1.6708 8.6748-.3434.206-.7897.2976-1.3161.2976-2.369 0-5.8824-1.8883-9.6132-5.3331 1.6022-1.6823 3.2044-3.5935 4.7265-5.7107 2.5864-.2746 5.0355-.6981 7.2785-1.2588.2633 1.1558.4692 2.2659.5951 3.3302zm4.4061-7.6333c-.9842.4235-2.06.8011-3.1701 1.1559-.6523-2.2431-1.5106-4.5777-2.5749-6.9696 1.0528-2.3804 1.8997-4.7036 2.5406-6.9352 1.133.3548 2.2087.7439 3.2158 1.1673 4.0513 1.7281 6.672 3.9941 6.672 5.7908-.0114 1.7968-2.6322 4.0742-6.6834 5.7908z"/><path d="m28.2203 30.2361c2.8884 0 5.23-2.3416 5.23-5.2301 0-2.8884-2.3416-5.23-5.23-5.23-2.8885 0-5.2301 2.3416-5.2301 5.23 0 2.8885 2.3416 5.2301 5.2301 5.2301z"/></g></svg>

<svg width="57" height="50" viewBox="0 0 57 50" fill="none" xmlns="http://www.w3.org/2000/svg">
<path d="M56.3048 25.0057C56.3048 21.2863 51.6469 17.7615 44.5057 15.5756C46.1537 8.29709 45.4213 2.50629 42.194 0.652323C41.4501 0.217441 40.5803 0.0114443 39.6305 0.0114443V2.56352C40.1569 2.56352 40.5803 2.66651 40.9351 2.86107C42.4915 3.75372 43.1667 7.15267 42.6403 11.5244C42.5144 12.6001 42.3084 13.7331 42.0566 14.889C39.8136 14.3397 37.3645 13.9162 34.7895 13.6416C33.2446 11.5244 31.6424 9.60174 30.0287 7.91943C33.7595 4.45182 37.2615 2.55207 39.6419 2.55207V0C36.4947 0 32.3748 2.24308 28.2091 6.13413C24.0434 2.26596 19.9234 0.0457771 16.7763 0.0457771V2.59785C19.1452 2.59785 22.6586 4.48615 26.3894 7.93088C24.7872 9.61318 23.185 11.5244 21.663 13.6416C19.0766 13.9162 16.6275 14.3397 14.3844 14.9004C14.1212 13.756 13.9266 12.6459 13.7893 11.5816C13.2514 7.20989 13.9152 3.81094 15.4602 2.90684C15.8035 2.70085 16.2498 2.60929 16.7763 2.60929V0.0572213C15.8149 0.0572213 14.9452 0.263218 14.1899 0.6981C10.974 2.55207 10.253 8.33143 11.9124 15.5871C4.79411 17.7844 0.15918 21.2978 0.15918 25.0057C0.15918 28.7251 4.817 32.2499 11.9582 34.4358C10.3102 41.7144 11.0427 47.5051 14.27 49.3591C15.0138 49.794 15.8836 50 16.8449 50C19.9921 50 24.112 47.7569 28.2777 43.8659C32.4435 47.734 36.5634 49.9542 39.7106 49.9542C40.6719 49.9542 41.5416 49.7482 42.297 49.3133C45.5128 47.4594 46.2338 41.68 44.5744 34.4244C51.6698 32.2385 56.3048 28.7137 56.3048 25.0057ZM41.4043 17.3724C40.9809 18.8487 40.4544 20.3708 39.8593 21.8929C39.3901 20.9773 38.898 20.0618 38.3601 19.1463C37.8337 18.2307 37.2729 17.3381 36.7122 16.4683C38.3373 16.7086 39.9051 17.0062 41.4043 17.3724ZM36.1628 29.5605C35.2702 31.1055 34.3547 32.5704 33.4048 33.9323C31.6996 34.081 29.9715 34.1611 28.232 34.1611C26.5039 34.1611 24.7758 34.081 23.082 33.9437C22.1322 32.5818 21.2052 31.1284 20.3125 29.5949C19.4428 28.0957 18.6531 26.5736 17.9321 25.0401C18.6417 23.5065 19.4428 21.973 20.3011 20.4738C21.1937 18.9288 22.1093 17.464 23.0592 16.1021C24.7644 15.9533 26.4924 15.8732 28.232 15.8732C29.9601 15.8732 31.6881 15.9533 33.3819 16.0906C34.3318 17.4525 35.2587 18.9059 36.1514 20.4395C37.0212 21.9387 37.8108 23.4607 38.5318 24.9943C37.8108 26.5278 37.0212 28.0613 36.1628 29.5605ZM39.8593 28.0728C40.4773 29.6063 41.0038 31.1399 41.4387 32.6276C39.9395 32.9938 38.3601 33.3028 36.7236 33.5431C37.2844 32.6619 37.8452 31.7578 38.3716 30.8309C38.898 29.9153 39.3901 28.9883 39.8593 28.0728ZM28.2549 40.2838C27.1905 39.1852 26.1262 37.9606 25.0734 36.6217C26.1033 36.6674 27.1562 36.7018 28.2205 36.7018C29.2963 36.7018 30.3606 36.6789 31.402 36.6217C30.372 37.9606 29.3077 39.1852 28.2549 40.2838ZM19.7403 33.5431C18.1152 33.3028 16.5474 33.0053 15.0482 32.639C15.4716 31.1627 15.998 29.6407 16.5931 28.1186C17.0624 29.0341 17.5545 29.9496 18.0923 30.8652C18.6302 31.7807 19.1796 32.6734 19.7403 33.5431ZM28.1976 9.72763C29.262 10.8263 30.3263 12.0508 31.3791 13.3898C30.3492 13.344 29.2963 13.3097 28.232 13.3097C27.1562 13.3097 26.0919 13.3326 25.0505 13.3898C26.0804 12.0508 27.1448 10.8263 28.1976 9.72763ZM19.7289 16.4683C19.1681 17.3495 18.6073 18.2536 18.0809 19.1806C17.5545 20.0961 17.0624 21.0117 16.5931 21.9272C15.9752 20.3937 15.4487 18.8602 15.0138 17.3724C16.513 17.0176 18.0923 16.7086 19.7289 16.4683ZM9.37181 30.7965C5.32054 29.0684 2.69981 26.8025 2.69981 25.0057C2.69981 23.209 5.32054 20.9316 9.37181 19.2149C10.356 18.7915 11.4318 18.4138 12.5419 18.0591C13.1942 20.3021 14.0525 22.6368 15.1168 25.0286C14.064 27.409 13.2171 29.7322 12.5762 31.9638C11.4432 31.6091 10.3675 31.22 9.37181 30.7965ZM15.5288 47.1504C13.9724 46.2577 13.2972 42.8588 13.8236 38.4871C13.9495 37.4113 14.1555 36.2783 14.4073 35.1225C16.6504 35.6718 19.0994 36.0952 21.6744 36.3699C23.2194 38.4871 24.8216 40.4097 26.4352 42.092C22.7044 45.5596 19.2024 47.4594 16.822 47.4594C16.307 47.4479 15.8722 47.3449 15.5288 47.1504ZM42.6746 38.4298C43.2125 42.8016 42.5487 46.2005 41.0038 47.1046C40.6604 47.3106 40.2141 47.4022 39.6877 47.4022C37.3187 47.4022 33.8053 45.5139 30.0745 42.0691C31.6767 40.3868 33.2789 38.4756 34.801 36.3584C37.3874 36.0838 39.8365 35.6603 42.0795 35.0996C42.3428 36.2554 42.5487 37.3655 42.6746 38.4298ZM47.0807 30.7965C46.0965 31.22 45.0207 31.5976 43.9106 31.9524C43.2583 29.7093 42.4 27.3747 41.3357 24.9828C42.3885 22.6024 43.2354 20.2792 43.8763 18.0476C45.0093 18.4024 46.085 18.7915 47.0921 19.2149C51.1434 20.943 53.7641 23.209 53.7641 25.0057C53.7527 26.8025 51.1319 29.0799 47.0807 30.7965Z" fill="#2F2F2F" fill-opacity="0.5"/>
<path d="M28.2203 30.2361C31.1087 30.2361 33.4503 27.8945 33.4503 25.006C33.4503 22.1176 31.1087 19.776 28.2203 19.776C25.3318 19.776 22.9902 22.1176 22.9902 25.006C22.9902 27.8945 25.3318 30.2361 28.2203 30.2361Z" fill="#2F2F2F" fill-opacity="0.5"/>
</svg>
